X: 3
T:Honorable Miss Drummond of Perth's Strathspey, The [3]
M:C
L:1/8
C:Captain Ross, Royal Artillery
B:Gow - 2nd Collection of Niel Gow's Reels, pg. 6 (1788)
Z:AK/Fiddler's Companion
K:E Minor
B,|"tr"E3F E/E/E EF|A>BAF DEFD|B,(E"tr"E>)D "tr"E>FGe|dF ({F/A/}B2)E:||
B|e3~f e/e/e "tr"e>d|B<d "tr"A>F D>EFD|e3f e/e/e "tr"e>d|B<d "tr"F>A ({F/A/}B2)EB|
e3f e/e/e "tr"e>d|B<d"tr"A>F D>EFD|B,(E"tr"E>)D "tr"E>FGe|dF ({F/A/}B2)E||
